src/static/logos/zigbee.svg

<?xml version="1.0" encoding="UTF-8" standalone="no"?>
<svg width="256px" height="256px" viewBox="0 0 256 256" version="1.1" xmlns="http://www.w3.org/2000/svg" xmlns:xlink="http://www.w3.org/1999/xlink" preserveAspectRatio="xMidYMid">
    <defs>
        <radialGradient cx="50%" cy="50%" fx="50%" fy="50%" r="50%" id="radialGradient-1">
            <stop stop-color="#DC001F" offset="0%"></stop>
            <stop stop-color="#D5001D" offset="64.214681%"></stop>
            <stop stop-color="#AE0017" offset="82.3819839%"></stop>
            <stop stop-color="#590E0A" offset="100%"></stop>
        </radialGradient>
        <linearGradient x1="49.895367%" y1="100%" x2="49.9943142%" y2="-1.92435989%" id="linearGradient-2">
            <stop stop-color="#D4001C" offset="0%"></stop>
            <stop stop-color="#EC8A6C" offset="53.1343169%"></stop>
            <stop stop-color="#FCEFE7" offset="88.7566854%"></stop>
            <stop stop-color="#FDF7F1" offset="100%"></stop>
        </linearGradient>
    </defs>
	<g>
		<path d="M0,128 C0,198.7 57.3,256 128,256 C198.7,256 256,198.7 256,128 C256,57.3 198.7,0 128,0 C57.3,0 0,57.3 0,128 L0,128 Z" fill="url(#radialGradient-1)"></path>
		<path d="M41.8635294,60.3356863 C41.8635294,88.947451 80.2133333,81.1168627 127.498039,81.1168627 C174.782745,81.1168627 213.132549,88.947451 213.132549,60.3356863 C213.132549,31.8243137 174.782745,8.63372549 127.498039,8.63372549 C80.2133333,8.53333333 41.8635294,31.7239216 41.8635294,60.3356863 L41.8635294,60.3356863 Z" fill="url(#linearGradient-2)"></path>
		<path d="M89.5498039,201.687843 C89.3490196,201.386667 118.763922,168.96 153.198431,135.127843 C187.331765,101.295686 216.345098,71.3788235 216.44549,71.3788235 C215.341176,47.8870588 198.073725,36.5427451 182.512941,34.6352941 C172.67451,32.627451 99.8901961,30.0172549 58.5286275,36.4423529 C50.8052498,37.3728804 43.0818721,38.3896577 35.27855,39.6525737 C34.9746645,39.7017556 31.9144293,42.8860604 29.1888835,46.1761884 C26.3942246,49.5497459 23.9395372,53.0301454 24.1934874,52.9943781 C47.8670236,49.6601116 71.5405599,47.4507754 95.2140962,46.3780526 C119.528352,45.2762967 143.842607,45.373511 168.156863,46.6823529 C168.658824,47.0839216 140.950588,77.8039216 106.817255,111.23451 C72.8847059,144.564706 42.1647059,175.385098 39.1529412,178.999216 C38.9521569,203.494902 59.7333333,212.931765 70.8768627,215.140392 C122.578824,220.16 174.777698,218.363641 226.479659,210.031092 C226.479659,210.031092 231.069167,204.861811 231.623855,203.913248 C232.178542,202.964685 236.154377,197.015354 236.026855,197.033533 C186.43285,204.103461 136.869001,206.296719 87.8431373,203.595294 C88.9174805,202.694818 88.947451,202.390588 89.5498039,201.687843 Z" fill="#FFFFFF"></path>
	</g>
</svg>

<svg width="256" height="256" xmlns="http://www.w3.org/2000/svg" preserveAspectRatio="xMidYMid"><defs><radialGradient cx="50%" cy="50%" fx="50%" fy="50%" r="50%" id="a"><stop stop-color="#DC001F" offset="0%"/><stop stop-color="#D5001D" offset="64.215%"/><stop stop-color="#AE0017" offset="82.382%"/><stop stop-color="#590E0A" offset="100%"/></radialGradient><linearGradient x1="49.895%" y1="100%" x2="49.994%" y2="-1.924%" id="b"><stop stop-color="#D4001C" offset="0%"/><stop stop-color="#EC8A6C" offset="53.134%"/><stop stop-color="#FCEFE7" offset="88.757%"/><stop stop-color="#FDF7F1" offset="100%"/></linearGradient></defs><path d="M0 128c0 70.7 57.3 128 128 128s128-57.3 128-128S198.7 0 128 0 0 57.3 0 128z" fill="url(#a)"/><path d="M41.864 60.336c0 28.611 38.35 20.78 85.634 20.78 47.285 0 85.635 7.831 85.635-20.78 0-28.512-38.35-51.702-85.635-51.702-47.285-.1-85.634 23.09-85.634 51.702z" fill="url(#b)"/><path d="M89.55 201.688c-.201-.301 29.214-32.728 63.648-66.56 34.134-33.832 63.147-63.75 63.247-63.75-1.104-23.49-18.371-34.835-33.932-36.743-9.838-2.008-82.623-4.618-123.984 1.807-7.724.93-15.447 1.948-23.25 3.21-.304.05-3.365 3.234-6.09 6.524-2.795 3.374-5.25 6.854-4.996 6.818a753.552 753.552 0 0171.021-6.616 736.201 736.201 0 0172.943.304c.502.402-27.206 31.122-61.34 64.553-33.932 33.33-64.652 64.15-67.664 67.764-.2 24.496 20.58 33.933 31.724 36.141 51.702 5.02 103.9 3.224 155.603-5.109 0 0 4.59-5.17 5.144-6.118.555-.948 4.53-6.898 4.403-6.88-49.594 7.07-99.158 9.264-148.184 6.562 1.074-.9 1.104-1.204 1.707-1.907z" fill="#FFF"/></svg>
